;FLAVOR:Makerbot
;TIME:12281
;Generated with Cura_SteamEngine 3.1.0
M104 S210
M109 S210
M82 ; absolute extrusion mode
M136 (enable build)
M73 P0
G162 X Y F2000(home XY axes maximum)
G161 Z F900(home Z axis minimum)
G92 X0 Y0 Z-5 A0 B0 (set Z to -5)
G1 Z0.0 F900(move Z to '0')
G161 Z F100(home Z axis minimum)
M132 X Y Z A B (Recall stored home offsets for XYZAB axis)
G92 X152 Y61 Z0 A0 B0
G1 X-141 Y-60 Z40 F3300.0 (move to waiting position)
G130 X20 Y20 A20 B20 (Lower stepper Vrefs while heating)
M135 T0
M104 S210 T0
M133 T0
G130 X127 Y127 A127 B127 (Set Stepper motor Vref to defaults)

G1 X105.400 Y-60.000 Z0.270 F9000.000 (Extruder Prime Dry Move)
G1 X-141 Y-60 Z0.270 F1800.000 E25.000 (Extruder Prime Start)
G92 A0 B0 (Reset after prime)
G1 Z0.000000 F1000
G1 X-141.0 Y-60.0 Z0.0 F1000 E0.0
G92 E0
G1 X-141.000 Y-60.000 Z0.000 F1500 A-1.30000; Retract
G1 X-141.000 Y-60.000 Z0.000 F3000; Retract
G1 X-141.000 Y-60.000 Z0.300 F1380; Travel Move
M73 P0; Update Progress
;LAYER_COUNT:29
;LAYER:0
M127 T0
G0 F3600 X-10.035 Y0.00 Z0.3
;TYPE:WALL-INNER
G1 F1800 X-4.839 Y8.998 E0.51838
G1 X44.694 Y8.998 E2.9896
G1 X44.695 Y8.998 E2.98965
G1 X44.943 Y8.998 E3.00202
G1 X44.889 Y9.241 E3.00959
G1 X44.434 Y11.284 E3.11402
G1 X43.622 Y14.076 E3.25908
G1 X42.672 Y16.721 E3.39929
G1 X41.527 Y19.369 E3.54322
G1 X40.231 Y21.912 E3.68562
G1 X38.773 Y24.378 E3.82854
G1 X37.163 Y26.749 E3.97153
G1 X35.426 Y28.987 E4.11287
G1 X33.516 Y31.153 E4.25694
G1 X31.493 Y33.177 E4.39971
G1 X29.368 Y35.049 E4.541
G1 X27.104 Y36.807 E4.684
G1 X24.733 Y38.419 E4.82704
G1 X22.272 Y39.873 E4.96965
G1 X19.739 Y41.165 E5.11151
G1 X17.087 Y42.313 E5.25568
G1 X14.431 Y43.267 E5.39648
G1 X11.656 Y44.074 E5.54066
G1 X8.899 Y44.69 E5.6816
G1 X6.046 Y45.141 E5.82571
G1 X3.227 Y45.408 E5.96698
G1 X0.355 Y45.5 E6.11033
G1 X-2.517 Y45.408 E6.25369
G1 X-5.336 Y45.141 E6.39496
G1 X-8.189 Y44.69 E6.53907
G1 X-10.946 Y44.074 E6.68
G1 X-13.721 Y43.267 E6.82419
G1 X-16.377 Y42.313 E6.96498
G1 X-19.029 Y41.165 E7.10916
G1 X-21.568 Y39.87 E7.25135
G1 X-24.016 Y38.423 E7.39322
G1 X-26.394 Y36.807 E7.53666
G1 X-28.645 Y35.06 E7.67882
G1 X-30.798 Y33.161 E7.82205
G1 X-32.806 Y31.153 E7.96372
G1 X-34.716 Y28.987 E8.1078
G1 X-36.452 Y26.749 E8.2491
G1 X-38.064 Y24.378 E8.39214
G1 X-39.521 Y21.912 E8.53504
G1 X-40.812 Y19.378 E8.67693
G1 X-41.961 Y16.721 E8.82135
G1 X-42.912 Y14.076 E8.96158
G1 X-43.724 Y11.284 E9.10664
G1 X-44.335 Y8.545 E9.24665
G1 X-44.786 Y5.691 E9.3908
G1 X-45.053 Y2.872 E9.53207
G1 X-45.145 Y0.006 E9.67513
G1 X-45.053 Y-2.888 E9.81959
G1 X-44.786 Y-5.691 E9.96006
G1 X-44.333 Y-8.556 E10.10477
G1 X-43.724 Y-11.284 E10.24423
G1 X-42.915 Y-14.071 E10.38901
G1 X-41.951 Y-16.745 E10.53082
G1 X-40.809 Y-19.384 E10.67428
G1 X-39.521 Y-21.912 E10.81583
G1 X-38.064 Y-24.378 E10.95873
G1 X-36.452 Y-26.749 E11.10177
G1 X-34.716 Y-28.987 E11.24307
G1 X-32.806 Y-31.153 E11.38715
G1 X-30.795 Y-33.164 E11.52904
G1 X-28.642 Y-35.063 E11.67226
G1 X-26.394 Y-36.807 E11.81421
G1 X-24.016 Y-38.423 E11.95765
G1 X-21.568 Y-39.87 E12.09952
G1 X-19.028 Y-41.165 E12.24176
G1 X-16.376 Y-42.313 E12.38593
G1 X-13.721 Y-43.267 E12.52668
G1 X-10.946 Y-44.074 E12.67086
G1 X-8.189 Y-44.69 E12.8118
G1 X-5.336 Y-45.141 E12.95591
G1 X-2.517 Y-45.408 E13.09718
G1 X0.355 Y-45.5 E13.24054
G1 X3.227 Y-45.408 E13.38389
G1 X6.046 Y-45.141 E13.52516
G1 X8.899 Y-44.69 E13.66927
G1 X11.656 Y-44.074 E13.81021
G1 X14.432 Y-43.267 E13.95444
G1 X17.086 Y-42.313 E14.09514
G1 X19.739 Y-41.165 E14.23936
G1 X22.272 Y-39.873 E14.38122
G1 X24.733 Y-38.419 E14.52383
G1 X27.104 Y-36.807 E14.66687
G1 X29.366 Y-35.051 E14.80973
G1 X31.489 Y-33.181 E14.95088
G1 X33.516 Y-31.153 E15.09393
G1 X35.426 Y-28.987 E15.238
G1 X37.163 Y-26.749 E15.37934
G1 X38.773 Y-24.378 E15.52233
G1 X40.231 Y-21.912 E15.66525
G1 X41.52 Y-19.384 E15.80682
G1 X42.672 Y-16.721 E15.95158
G1 X43.619 Y-14.089 E16.09113
G1 X44.431 Y-11.296 E16.23624
G1 X44.889 Y-9.241 E16.34128
G1 X44.943 Y-8.998 E16.3537
G1 X44.695 Y-8.998 E16.36125
G1 X44.694 Y-8.998 E16.3613
G1 X-4.839 Y-8.998 E18.83251
G1 X-10.035 Y0.00 E19.35089
G0 F3600 X-4.627 Y-8.632
G0 X5.503 Y-8.678
G0 X5.561 Y-8.598
G1 F1800 X5.556 Y-8.581 E19.35178
G1 X5.531 Y-8.506 E19.35572
G1 X5.507 Y-8.58
G1 X5.501 Y-8.598
G1 X-4.608 Y-8.598 E19.86006
G1 X-9.573 Y0.00 E20.3554
G1 X-4.608 Y8.598 E20.85074
G1 X5.501 Y8.598 E21.35508
G1 X5.506 Y8.581 E21.35596
G1 X5.531 Y8.506 E21.35991
G1 X5.555 Y8.58
G1 X5.561 Y8.598
G1 X45.193 Y8.598 E23.33716
G1 X45.194 Y8.598 E23.33721
G1 X45.442 Y8.598 E23.34958
G1 X45.388 Y8.841 E23.35715
G1 X44.818 Y11.396 E23.48776
G1 X44.005 Y14.192 E23.63303
G1 X43.039 Y16.88 E23.77553
G1 X41.89 Y19.537 E23.91995
G1 X40.581 Y22.106 E24.0638
G1 X39.109 Y24.596 E24.20811
G1 X37.49 Y26.979 E24.35184
G1 X35.726 Y29.252 E24.49538
G1 X33.809 Y31.426 E24.63999
G1 X31.774 Y33.462 E24.7836
G1 X29.62 Y35.36 E24.92683
G1 X27.334 Y37.134 E25.07119
G1 X24.951 Y38.754 E25.21495
G1 X22.466 Y40.223 E25.35897
G1 X19.907 Y41.528 E25.50228
G1 X17.241 Y42.682 E25.64722
G1 X14.547 Y43.65 E25.79004
G1 X11.762 Y44.46 E25.93474
G1 X8.968 Y45.084 E26.07756
G1 X6.099 Y45.538 E26.22248
G1 X3.246 Y45.808 E26.36545
G1 X0.355 Y45.9 E26.50976
G1 X-2.536 Y45.808 E26.65406
G1 X-5.389 Y45.538 E26.79704
G1 X-8.258 Y45.084 E26.94195
G1 X-11.052 Y44.46 E27.08478
G1 X-13.837 Y43.65 E27.22948
G1 X-16.531 Y42.682 E27.3723
G1 X-19.197 Y41.528 E27.51723
G1 X-21.755 Y40.223 E27.6605
G1 X-24.241 Y38.754 E27.80456
G1 X-26.624 Y37.134 E27.94832
G1 X-28.902 Y35.367 E28.09215
G1 X-31.071 Y33.454 E28.23644
G1 X-33.099 Y31.426 E28.37953
G1 X-35.016 Y29.252 E28.52413
G1 X-36.779 Y26.979 E28.66764
G1 X-38.399 Y24.596 E28.8114
G1 X-39.871 Y22.106 E28.95571
G1 X-41.173 Y19.551 E29.09878
G1 X-42.328 Y16.88 E29.24396
G1 X-43.295 Y14.192 E29.38648
G1 X-44.108 Y11.396 E29.53175
G1 X-44.729 Y8.613 E29.67401
G1 X-45.183 Y5.744 E29.81893
G1 X-45.453 Y2.891 E29.9619
G1 X-45.545 Y0.006 E30.10591
G1 X-45.453 Y-2.901 E30.25101
G1 X-45.183 Y-5.744 E30.39348
G1 X-44.728 Y-8.619 E30.5387
G1 X-44.108 Y-11.396 E30.68066
G1 X-43.296 Y-14.192 E30.82592
G1 X-42.324 Y-16.89 E30.96899
G1 X-41.172 Y-19.552 E31.1137
G1 X-39.871 Y-22.106 E31.2567
G1 X-38.399 Y-24.596 E31.40101
G1 X-36.779 Y-26.979 E31.54477
G1 X-35.016 Y-29.252 E31.68828
G1 X-33.099 Y-31.426 E31.83289
G1 X-31.071 Y-33.454 E31.97597
G1 X-28.902 Y-35.367 E32.12026
G1 X-26.624 Y-37.134 E32.26409
G1 X-24.241 Y-38.754 E32.40785
G1 X-21.755 Y-40.223 E32.55191
G1 X-19.196 Y-41.528 E32.69522
G1 X-16.53 Y-42.682 E32.84016
G1 X-13.837 Y-43.65 E32.98293
G1 X-11.052 Y-44.46 E33.12763
G1 X-8.258 Y-45.084 E33.27046
G1 X-5.389 Y-45.538 E33.41537
G1 X-2.536 Y-45.808 E33.55835
G1 X0.355 Y-45.9 E33.70265
G1 X3.246 Y-45.808 E33.84696
G1 X6.099 Y-45.538 E33.98993
G1 X8.968 Y-45.084 E34.13485
G1 X11.762 Y-44.46 E34.27767
G1 X14.548 Y-43.65 E34.42242
G1 X17.24 Y-42.682 E34.56515
G1 X19.907 Y-41.528 E34.71012
G1 X22.466 Y-40.223 E34.85344
G1 X24.951 Y-38.754 E34.99746
G1 X27.334 Y-37.134 E35.14122
G1 X29.62 Y-35.36 E35.28558
G1 X31.772 Y-33.464 E35.42867
G1 X33.809 Y-31.426 E35.57242
G1 X35.726 Y-29.252 E35.71703
G1 X37.49 Y-26.979 E35.86057
G1 X39.109 Y-24.596 E36.0043
G1 X40.581 Y-22.106 E36.14861
G1 X41.883 Y-19.552 E36.29163
G1 X43.039 Y-16.88 E36.43688
G1 X44.003 Y-14.201 E36.57893
G1 X44.815 Y-11.408 E36.72404
G1 X45.388 Y-8.841 E36.85526
G1 X45.442 Y-8.598 E36.86768
G1 X45.194 Y-8.598 E36.87523
G1 X45.193 Y-8.598 E36.87528
G1 X5.561 Y-8.598 E38.85252
G0 F3600 X5.851 Y-8.198
;TYPE:WALL-OUTER
G1 F1800 X5.758 Y-7.915 E38.86739
G1 X5.737 Y-7.849 E38.87084
G1 X5.665 Y-7.797 E38.87527
G1 X5.609 Y-7.756 E38.87873
G1 X5.453 Y-7.756 E38.88652
G1 X5.397 Y-7.797 E38.88998
G1 X5.325 Y-7.849 E38.89441
G1 X5.304 Y-7.915 E38.89787
G1 X5.211 Y-8.198 E38.91273
G1 X-4.377 Y-8.198 E39.39108
G1 X-9.111 Y0.00 E39.86337
G1 X-4.377 Y8.198 E40.33566
G1 X5.211 Y8.198 E40.81401
G1 X5.304 Y7.915 E40.82887
G1 X5.325 Y7.849 E40.83233
G1 X5.397 Y7.797 E40.83676
G1 X5.453 Y7.756 E40.84022
G1 X5.609 Y7.756 E40.84801
G1 X5.665 Y7.797 E40.85147
G1 X5.737 Y7.849 E40.8559
G1 X5.758 Y7.915 E40.85935
G1 X5.851 Y8.198 E40.87422
G1 X45.677 Y8.198 E42.86114
G1 X45.678 Y8.198 E42.86119
G1 X45.91 Y8.198 E42.87277
G1 X45.874 Y8.428 E42.87996
G1 X45.834 Y8.682 E42.89279
G1 X45.202 Y11.508 E43.03726
G1 X44.388 Y14.308 E43.18274
G1 X43.406 Y17.039 E43.32753
G1 X42.247 Y19.718 E43.47316
G1 X40.931 Y22.3 E43.61774
G1 X39.444 Y24.814 E43.76346
G1 X37.817 Y27.209 E43.90791
G1 X36.026 Y29.517 E44.05366
G1 X34.102 Y31.699 E44.1988
G1 X32.055 Y33.747 E44.34326
G1 X29.872 Y35.671 E44.48843
G1 X27.564 Y37.461 E44.63415
G1 X25.169 Y39.089 E44.77863
G1 X22.66 Y40.573 E44.92406
G1 X20.075 Y41.891 E45.06882
G1 X17.395 Y43.051 E45.21452
G1 X14.663 Y44.033 E45.35936
G1 X11.868 Y44.846 E45.50458
G1 X9.037 Y45.478 E45.64929
G1 X6.152 Y45.935 E45.79502
G1 X3.265 Y46.208 E45.9397
G1 X0.355 Y46.3 E46.08495
G1 X-2.555 Y46.208 E46.2302
G1 X-5.442 Y45.935 E46.37488
G1 X-8.327 Y45.478 E46.52061
G1 X-11.158 Y44.846 E46.66532
G1 X-13.953 Y44.033 E46.81054
G1 X-16.685 Y43.051 E46.95538
G1 X-19.365 Y41.891 E47.10108
G1 X-21.949 Y40.573 E47.24579
G1 X-24.459 Y39.089 E47.39127
G1 X-26.854 Y37.461 E47.53575
G1 X-29.162 Y35.671 E47.68146
G1 X-31.344 Y33.747 E47.8266
G1 X-33.392 Y31.699 E47.9711
G1 X-35.316 Y29.517 E48.11623
G1 X-37.106 Y27.209 E48.26195
G1 X-38.734 Y24.814 E48.40643
G1 X-40.221 Y22.3 E48.55215
G1 X-41.536 Y19.719 E48.69667
G1 X-42.695 Y17.039 E48.84234
G1 X-43.678 Y14.308 E48.98715
G1 X-44.492 Y11.508 E49.13262
G1 X-45.123 Y8.682 E49.27709
G1 X-45.58 Y5.797 E49.42281
G1 X-45.853 Y2.91 E49.56749
G1 X-45.945 Y0.006 E49.71244
G1 X-45.853 Y-2.914 E49.8582
G1 X-45.58 Y-5.797 E50.00267
G1 X-45.123 Y-8.682 E50.1484
G1 X-44.492 Y-11.508 E50.29286
G1 X-43.677 Y-14.313 E50.43859
G1 X-42.695 Y-17.039 E50.58315
G1 X-41.535 Y-19.72 E50.72889
G1 X-40.221 Y-22.3 E50.87333
G1 X-38.734 Y-24.814 E51.01906
G1 X-37.106 Y-27.209 E51.16353
G1 X-35.316 Y-29.517 E51.30925
G1 X-33.392 Y-31.699 E51.45439
G1 X-31.344 Y-33.747 E51.59889
G1 X-29.162 Y-35.671 E51.74402
G1 X-26.854 Y-37.461 E51.88974
G1 X-24.459 Y-39.089 E52.03422
G1 X-21.949 Y-40.573 E52.17969
G1 X-19.364 Y-41.891 E52.32446
G1 X-16.684 Y-43.051 E52.47015
G1 X-13.953 Y-44.033 E52.61494
G1 X-11.158 Y-44.846 E52.76016
G1 X-8.327 Y-45.478 E52.90488
G1 X-5.442 Y-45.935 E53.05061
G1 X-2.555 Y-46.208 E53.19528
G1 X0.355 Y-46.3 E53.34053
G1 X3.265 Y-46.208 E53.48579
G1 X6.152 Y-45.935 E53.63046
G1 X9.037 Y-45.478 E53.77619
G1 X11.868 Y-44.846 E53.92091
G1 X14.664 Y-44.033 E54.06618
G1 X17.394 Y-43.051 E54.21092
G1 X20.075 Y-41.891 E54.35666
G1 X22.66 Y-40.573 E54.50142
G1 X25.169 Y-39.089 E54.64685
G1 X27.564 Y-37.461 E54.79133
G1 X29.872 Y-35.671 E54.93705
G1 X32.055 Y-33.747 E55.08222
G1 X34.102 Y-31.699 E55.22668
G1 X36.026 Y-29.517 E55.37182
G1 X37.817 Y-27.209 E55.51757
G1 X39.444 Y-24.814 E55.66202
G1 X40.931 Y-22.3 E55.80774
G1 X42.246 Y-19.72 E55.95221
G1 X43.406 Y-17.039 E56.09795
G1 X44.387 Y-14.313 E56.24249
G1 X45.199 Y-11.52 E56.3876
G1 X45.834 Y-8.682 E56.53269
G1 X45.874 Y-8.428 E56.54552
G1 X45.91 Y-8.198 E56.55714
G1 X45.678 Y-8.198 E56.56431
G1 X45.677 Y-8.198 E56.56436
G1 X5.851 Y-8.198 E58.55128
G0 F3600 X5.789 Y-8.008
G0 X5.531 Y-8.606
G0 X-5.064 Y-9.388
;TYPE:SKIN
G1 F1800 X-10.485 Y0.00 E59.09213
G1 X-5.064 Y9.388 E59.63298
G1 X44.458 Y9.388 E62.10364
G1 X44.06 Y11.175 E62.19498
G1 X43.252 Y13.951 E62.33922
G1 X42.309 Y16.578 E62.47847
G1 X41.175 Y19.201 E62.62104
G1 X39.895 Y21.713 E62.7617
G1 X38.437 Y24.179 E62.90462
G1 X36.848 Y26.519 E63.04574
G1 X35.125 Y28.738 E63.1859
G1 X33.224 Y30.895 E63.32934
G1 X31.235 Y32.885 E63.46971
G1 X29.119 Y34.748 E63.61036
G1 X26.866 Y36.497 E63.75266
G1 X24.534 Y38.083 E63.89336
G1 X22.078 Y39.534 E64.03568
G1 X19.584 Y40.807 E64.17537
G1 X16.945 Y41.95 E64.31885
G1 X14.306 Y42.897 E64.45873
G1 X11.557 Y43.698 E64.60159
G1 X8.838 Y44.305 E64.74058
G1 X5.985 Y44.755 E64.88467
G1 X3.209 Y45.018 E65.02379
G1 X0.355 Y45.11 E65.16625
G1 X-2.499 Y45.018 E65.30871
G1 X-5.275 Y44.755 E65.44782
G1 X-8.128 Y44.305 E65.59192
G1 X-10.847 Y43.698 E65.73091
G1 X-13.596 Y42.897 E65.87376
G1 X-16.235 Y41.95 E66.01364
G1 X-18.874 Y40.807 E66.15712
G1 X-21.374 Y39.531 E66.29715
G1 X-23.817 Y38.087 E66.43874
G1 X-26.164 Y36.492 E66.58031
G1 X-28.398 Y34.758 E66.7214
G1 X-30.54 Y32.869 E66.86388
G1 X-32.514 Y30.895 E67.00316
G1 X-34.415 Y28.738 E67.1466
G1 X-36.137 Y26.519 E67.28673
G1 X-37.728 Y24.179 E67.4279
G1 X-39.185 Y21.713 E67.5708
G1 X-40.463 Y19.204 E67.71128
G1 X-41.598 Y16.578 E67.854
G1 X-42.542 Y13.951 E67.99327
G1 X-43.35 Y11.175 E68.13751
G1 X-43.95 Y8.484 E68.27506
G1 X-44.4 Y5.63 E68.41921
G1 X-44.663 Y2.854 E68.55832
G1 X-44.755 Y0.018 E68.69989
G1 X-44.663 Y-2.876 E68.84434
G1 X-44.4 Y-5.63 E68.98237
G1 X-43.947 Y-8.495 E69.12708
G1 X-43.35 Y-11.175 E69.26406
G1 X-42.544 Y-13.951 E69.40827
G1 X-41.588 Y-16.602 E69.54887
G1 X-40.456 Y-19.219 E69.69112
G1 X-39.185 Y-21.713 E69.83078
G1 X-37.728 Y-24.179 E69.97367
G1 X-36.137 Y-26.519 E70.11485
G1 X-34.415 Y-28.738 E70.25498
G1 X-32.514 Y-30.895 E70.39842
G1 X-30.537 Y-32.872 E70.53791
G1 X-28.393 Y-34.763 E70.68053
G1 X-26.164 Y-36.492 E70.82127
G1 X-23.817 Y-38.087 E70.96284
G1 X-21.374 Y-39.531 E71.10442
G1 X-18.866 Y-40.81 E71.24488
G1 X-16.233 Y-41.95 E71.38802
G1 X-13.596 Y-42.897 E71.52781
G1 X-10.847 Y-43.698 E71.67066
G1 X-8.128 Y-44.305 E71.80965
G1 X-5.275 Y-44.755 E71.95375
G1 X-2.499 Y-45.018 E72.09286
G1 X0.355 Y-45.11 E72.23533
G1 X3.209 Y-45.018 E72.37779
G1 X5.985 Y-44.755 E72.5169
G1 X8.838 Y-44.305 E72.661
G1 X11.557 Y-43.698 E72.79999
G1 X14.307 Y-42.897 E72.94289
G1 X16.943 Y-41.95 E73.08263
G1 X19.577 Y-40.81 E73.22582
G1 X22.078 Y-39.534 E73.3659
G1 X24.534 Y-38.083 E73.50821
G1 X26.864 Y-36.499 E73.64877
G1 X29.117 Y-34.75 E73.79107
G1 X31.231 Y-32.888 E73.93162
G1 X33.224 Y-30.895 E74.07223
G1 X35.125 Y-28.738 E74.21568
G1 X36.848 Y-26.519 E74.35584
G1 X38.437 Y-24.179 E74.49695
G1 X39.895 Y-21.713 E74.63988
G1 X41.167 Y-19.219 E74.77955
G1 X42.309 Y-16.578 E74.9231
G1 X43.248 Y-13.969 E75.06144
G1 X44.054 Y-11.199 E75.20537
G1 X44.458 Y-9.388 E75.29794
G1 X-5.064 Y-9.388 E77.7686
G0 F3600 X27.861 Y-35.495
G1 F1800 X35.86 Y-27.495 E78.33301
G1 X35.93 Y-27.425
G0 F3600 X37.388 Y-25.402
G1 F1800 X25.759 Y-37.031 E79.1535
G1 X25.689 Y-37.101
G0 F3600 X24.09 Y-38.134
G1 F1800 X38.49 Y-23.734 E80.16949
G1 X38.56 Y-23.664
G0 F3600 X39.308 Y-22.35
G1 F1800 X22.707 Y-38.952 E81.34082
G1 X22.637 Y-39.022
G0 F3600 X21.433 Y-39.66
G1 F1800 X40.018 Y-21.076 E82.65206
G1 X40.088 Y-21.006
G0 F3600 X40.606 Y-19.922
G1 F1800 X20.278 Y-40.249 E84.08627
G1 X20.208 Y-40.319
G0 F3600 X19.176 Y-40.786
G1 F1800 X41.143 Y-18.819 E85.63616
G1 X41.213 Y-18.749
G0 F3600 X41.573 Y-17.823
G1 F1800 X18.178 Y-41.218 E87.28681
G1 X18.108 Y-41.288
G0 F3600 X17.181 Y-41.65
G1 F1800 X42.004 Y-16.827 E89.0382
G1 X42.074 Y-16.757
G0 F3600 X42.358 Y-15.907
G1 F1800 X16.263 Y-42.002 E90.87935
G1 X16.193 Y-42.072
G0 F3600 X15.38 Y-42.318
G1 F1800 X42.676 Y-15.023 E92.80519
G1 X42.746 Y-14.953
G0 F3600 X42.994 Y-14.139
G1 F1800 X14.499 Y-42.635 E94.8157
G1 X14.429 Y-42.705
G0 F3600 X13.676 Y-42.891
G1 F1800 X43.248 Y-13.319 E96.90217
G1 X43.318 Y-13.249
G0 F3600 X43.48 Y-12.522
G1 F1800 X12.878 Y-43.124 E99.0613
G1 X12.808 Y-43.194
G0 F3600 X12.08 Y-43.356
G1 F1800 X43.713 Y-11.723 E101.29318
G1 X43.783 Y-11.653
G0 F3600 X43.925 Y-10.946
G1 F1800 X11.301 Y-43.569 E103.59495
G1 X11.231 Y-43.639
G0 F3600 X10.573 Y-43.732
G1 F1800 X44.088 Y-10.217 E105.95961
G1 X44.158 Y-10.147
G0 F3600 X44.172 Y-9.567
G1 F1800 X9.845 Y-43.895 E108.3816
G1 X9.775 Y-43.965
G0 F3600 X9.116 Y-44.057
G1 F1800 X43.606 Y-9.567 E110.81506
G1 X43.676 Y-9.497
G0 F3600 X43.04 Y-9.567
G1 F1800 X8.421 Y-44.187 E113.25765
G1 X8.351 Y-44.257
G0 F3600 X7.749 Y-44.293
G1 F1800 X42.475 Y-9.567 E115.70776
G1 X42.545 Y-9.497
G0 F3600 X41.909 Y-9.567
G1 F1800 X7.078 Y-44.399 E118.16531
G1 X7.008 Y-44.469
G0 F3600 X6.407 Y-44.504
G1 F1800 X41.343 Y-9.567 E120.63027
G1 X41.413 Y-9.497
G0 F3600 X40.778 Y-9.567
G1 F1800 X5.75 Y-44.595 E123.10168
